X: 130026
T: BOOT DANCE
%R: hornpipe
B: James Kerr "Merry Melodies" v.1 p.30 s.0 #26
Z: 2016 John Chambers <jc:trillian.mit.edu>
M: C
L: 1/8
K: Am
|:\
vA2-A>vB uc>vBuA>vc | uB>vAu^G>uB A2A2 |\
vc2-c>vd ue>vduc>ve | ud>vcuB>ud c2c2 |\
vA2-A>vB uc>vBuA>uc | v_B2-B>vd uf>vduB>ud |\
ve>vcuA>uc ve>vduc>uB | A>ce>a A2z2 H:|
K: A
|:\
vA2ua>vA ug>vAuf>vA | e>A d>A c>Ac>ud |\
ve>vcuA>uc e>dc>A | c>BA>c B>E(=F>E) |\
vA2ua>vA g>Af>A | e>A d>A c>Ac>ud |\
e>cA>c e>dc>B | A>cea A2"_D.C."z2 :|

%%sep 1 1 500
%%sep 1 1 500

